svg/book_lock_open_outline.svg

<svg xmlns="http://www.w3.org/2000/svg" viewBox="0 0 24 24"><path d="M13 20.7c0 .46.1.9.27 1.3H6c-1.11 0-2-.89-2-2V4a2 2 0 0 1 2-2h12a2 2 0 0 1 2 2v5.11c-.32-.07-.66-.11-1-.11s-.68.04-1 .11V4h-5v8l-2.5-2.25L8 12V4H6v16h7zm8.8-4.7h-4.3v-2.5c0-.8.7-1.3 1.5-1.3s1.5.5 1.5 1.3v.5h1.3v-.5c0-1.4-1.4-2.5-2.8-2.5s-2.8 1.1-2.8 2.5V16c-.6 0-1.2.6-1.2 1.2v3.5c0 .7.6 1.3 1.2 1.3h5.5c.7 0 1.3-.6 1.3-1.2v-3.5c0-.7-.6-1.3-1.2-1.3"/></svg>

<?xml version="1.0" encoding="UTF-8"?><!DOCTYPE svg PUBLIC "-//W3C//DTD SVG 1.1//EN" "http://www.w3.org/Graphics/SVG/1.1/DTD/svg11.dtd"><svg xmlns="http://www.w3.org/2000/svg" xmlns:xlink="http://www.w3.org/1999/xlink" version="1.1" id="mdi-book-lock-open-outline" width="24" height="24" viewBox="0 0 24 24"><path d="M13 20.7C13 21.16 13.1 21.6 13.27 22H6C4.89 22 4 21.11 4 20V4C4 2.9 4.89 2 6 2H18C19.11 2 20 2.9 20 4V9.11C19.68 9.04 19.34 9 19 9S18.32 9.04 18 9.11V4H13V12L10.5 9.75L8 12V4H6V20H13V20.7M21.8 16H17.5V13.5C17.5 12.7 18.2 12.2 19 12.2S20.5 12.7 20.5 13.5V14H21.8V13.5C21.8 12.1 20.4 11 19 11S16.2 12.1 16.2 13.5V16C15.6 16 15 16.6 15 17.2V20.7C15 21.4 15.6 22 16.2 22H21.7C22.4 22 23 21.4 23 20.8V17.3C23 16.6 22.4 16 21.8 16Z" /></svg>
